X:1
T:Title
%%score { ( 1 3 ) | ( 2 4 ) }
L:1/8
M:4/4
K:G
V:1 treble nm="Grand Piano"
V:3 treble 
V:2 treble 
V:4 treble 
V:1
 z4 z2[Q:1/4=92] G>A | B<B c>B [DGB][CFA] [A,DF]>[B,DG] | [CFA][CFA] [DFB]>[CFA] [B,G]2 B>c | %3
 d<d e>d dB [Ac]>B |[M:3/4] Ad [Fd]>[G^c] [Fd]2 |[M:1/4] [Fd][Ac] |[M:4/4] .[GB]2 D<D d2 ed | %7
 z/ B3/2- B2 z4 | [FA]<[FA] [FA]>[FA] [FA][Ac] [GB]>[FA] | [G-B]4 G2 z2 | z/ [Ec]3/2- [Ec]2 z4 | %11
 z/ [DB]3/2- [DB]2 z4 | z/ [FA]3/2- [FA]2 z4 | [B,G]6 z2 |] %14
V:2
 z4 z2 [G,B,D]>[G,CD] | [G,DG]<[G,DG] [G,EG]>[G,DG][K:bass] D,D, D,>D, | %2
 D,D, D,>D, G,,2[K:treble] [G,G]>[G,A,G] | %3
 [G,B,G]<[G,B,G] [G,CG]>[B,G] [G,B,G][G,DG] [F,D]>[G,DG] | %4
[M:3/4] [A,DF][A,F][K:bass] [A,,A,]>[A,,A,] [D,A,]2 |[M:1/4] [D,A,][F,D] | %6
[M:4/4] [G,D]<[G,D] G,<G,[K:treble] [G,B,G]2 [G,CG][G,B,G] | z/ G3/2- G2[K:bass] z4 | %8
 [D,D]<[D,D] [D,D]>[D,D] [D,D][D,D] [D,D]>[D,D] | G,2 G,>G, [G,B,]2 [G,D][G,D] | %10
 [C,G,]<[C,G,] C,<C, [C,G,]2 [C,G,][C,G,] | [G,,G,]<[G,,G,] G,,<G,, [G,D]2 [G,B,D][G,B,D] | %12
 [D,C]<[D,C] D,<D, D,3 D, | G,,6 z2 |] %14
V:3
 x8 | x8 | x8 | x8 |[M:3/4] x6 |[M:1/4] x2 |[M:4/4] z/ [GB]3/2- [GB]2 z4 | %7
 .B2 D<D [DBd]2 [DAc][DGB] | x8 | D2 D>D d2 BB | .[Ec]2 G,<G, [Ec]2 [EG][^DA] | %11
 .[DB]2 G,<G, B2 GG | .[FA]2 C<C [DFB]3 [CFA] | x8 |] %14
V:4
 x8 | x4[K:bass] x4 | x6[K:treble] x2 | x8 |[M:3/4] x2[K:bass] x4 |[M:1/4] x2 | %6
[M:4/4] x4[K:treble] x4 | [G,DG]<[G,D] G,<[K:bass]G, G,2 F,G, | x8 | x8 | x8 | x8 | x8 | x8 |] %14

